src/cart/components/img/average_red.svg

<svg height="37" viewBox="0 0 37 37" width="37" xmlns="http://www.w3.org/2000/svg"><g fill="#ff1744" fill-rule="evenodd"><path d="m18.2706944 33.4843056c-8.38902773 0-15.21513884-6.8261112-15.21513884-15.2151389 0-8.38902781 6.82611111-15.21361114 15.21513884-15.21361114 8.3890278 0 15.2151389 6.82458333 15.2151389 15.21361114 0 8.3890277-6.8261111 15.2151389-15.2151389 15.2151389m0-33.4843056c-10.07416662 0-18.2706944 8.195-18.2706944 18.2691667 0 10.0741666 8.19652778 18.2706944 18.2706944 18.2706944 10.0741667 0 18.2706945-8.1965278 18.2706945-18.2706944 0-10.0741667-8.1965278-18.2691667-18.2706945-18.2691667"/><path d="m22.6182917 16.9338889c1.3704166 0 2.4826389-1.1122222 2.4826389-2.4826389s-1.1122223-2.4826389-2.4826389-2.4826389c-1.3704167 0-2.4826389 1.1122222-2.4826389 2.4826389s1.1122222 2.4826389 2.4826389 2.4826389"/><path d="m13.9230972 16.9338889c1.3704167 0 2.4826389-1.1122222 2.4826389-2.4826389s-1.1122222-2.4826389-2.4826389-2.4826389c-1.3704166 0-2.4826389 1.1122222-2.4826389 2.4826389s1.1122223 2.4826389 2.4826389 2.4826389"/><path d="m23.5760556 20.9472083c-1.3108334 1.5858334-3.2434723 2.4963889-5.2998612 2.4963889-2.0609722 0-3.9966666-.9151389-5.3075-2.5101389-.5377777-.6508333-1.49875-.7455555-2.1526388-.2093055-.6493056.5377778-.7440278 1.5002778-.2077778 2.1526389 1.8959722 2.3023611 4.6902778 3.6223611 7.6679166 3.6223611 2.9715278 0 5.76125-1.3154167 7.6541667-3.6070834.5393056-.6493055.4461111-1.6118055-.2047222-2.1495833-.6538889-.5393055-1.6133333-.4461111-2.1495833.2047222"/></g></svg>

<?xml version="1.0" encoding="UTF-8"?>
<svg width="37px" height="37px" viewBox="0 0 37 37" version="1.1" xmlns="http://www.w3.org/2000/svg" xmlns:xlink="http://www.w3.org/1999/xlink">
    <!-- Generator: Sketch 48.2 (47327) - http://www.bohemiancoding.com/sketch -->
    <title>Good Copy</title>
    <desc>Created with Sketch.</desc>
    <defs></defs>
    <g id="22-Thank-you-" stroke="none" stroke-width="1" fill="none" fill-rule="evenodd" transform="translate(-161.000000, -396.000000)">
        <g id="Rating" transform="translate(16.000000, 241.000000)" fill="#FF1744">
            <g id="Rating--2" transform="translate(39.000000, 155.000000)">
                <g id="Good-Copy" transform="translate(106.000000, 0.000000)">
                    <path d="M18.2706944,33.4843056 C9.88166667,33.4843056 3.05555556,26.6581944 3.05555556,18.2691667 C3.05555556,9.88013889 9.88166667,3.05555556 18.2706944,3.05555556 C26.6597222,3.05555556 33.4858333,9.88013889 33.4858333,18.2691667 C33.4858333,26.6581944 26.6597222,33.4843056 18.2706944,33.4843056 M18.2706944,0 C8.19652778,0 0,8.195 0,18.2691667 C0,28.3433333 8.19652778,36.5398611 18.2706944,36.5398611 C28.3448611,36.5398611 36.5413889,28.3433333 36.5413889,18.2691667 C36.5413889,8.195 28.3448611,0 18.2706944,0" id="Fill-1"></path>
                    <path d="M22.6182917,16.9338889 C23.9887083,16.9338889 25.1009306,15.8216667 25.1009306,14.45125 C25.1009306,13.0808333 23.9887083,11.9686111 22.6182917,11.9686111 C21.247875,11.9686111 20.1356528,13.0808333 20.1356528,14.45125 C20.1356528,15.8216667 21.247875,16.9338889 22.6182917,16.9338889" id="Fill-3"></path>
                    <path d="M13.9230972,16.9338889 C15.2935139,16.9338889 16.4057361,15.8216667 16.4057361,14.45125 C16.4057361,13.0808333 15.2935139,11.9686111 13.9230972,11.9686111 C12.5526806,11.9686111 11.4404583,13.0808333 11.4404583,14.45125 C11.4404583,15.8216667 12.5526806,16.9338889 13.9230972,16.9338889" id="Fill-5"></path>
                    <path d="M23.5760556,20.9472083 C22.2652222,22.5330417 20.3325833,23.4435972 18.2761944,23.4435972 C16.2152222,23.4435972 14.2795278,22.5284583 12.9686944,20.9334583 C12.4309167,20.282625 11.4699444,20.1879028 10.8160556,20.7241528 C10.16675,21.2619306 10.0720278,22.2244306 10.6082778,22.8767917 C12.50425,25.1791528 15.2985556,26.4991528 18.2761944,26.4991528 C21.2477222,26.4991528 24.0374444,25.1837361 25.9303611,22.8920694 C26.4696667,22.2427639 26.3764722,21.2802639 25.7256389,20.7424861 C25.07175,20.2031806 24.1123056,20.296375 23.5760556,20.9472083" id="Fill-7"></path>
                </g>
            </g>
        </g>
    </g>
</svg>
